src/assets/img/logo-github.svg

<svg width="200" height="200" viewBox="0 0 200 200" fill="none" xmlns="http://www.w3.org/2000/svg">
<rect x="0.5" y="0.5" width="199" height="199" rx="15.5" fill="#0F0913" stroke="#655F67"/>
<g clip-path="url(#clip0_3022_30003)">
<path fill-rule="evenodd" clip-rule="evenodd" d="M99.7497 18C53.4383 18 16 55.7143 16 102.372C16 139.668 39.988 171.238 73.2657 182.412C77.4263 183.252 78.9503 180.597 78.9503 178.363C78.9503 176.407 78.8131 169.702 78.8131 162.717C55.516 167.746 50.6646 152.659 50.6646 152.659C46.9206 142.881 41.3731 140.367 41.3731 140.367C33.748 135.199 41.9286 135.199 41.9286 135.199C50.3869 135.758 54.8251 143.859 54.8251 143.859C62.3114 156.71 74.3749 153.079 79.228 150.843C79.9206 145.395 82.1406 141.624 84.4977 139.529C65.9166 137.573 46.3669 130.31 46.3669 97.9011C46.3669 88.6817 49.6926 81.1389 54.9623 75.2726C54.1309 73.1777 51.2183 64.5154 55.7954 52.9217C55.7954 52.9217 62.8669 50.6863 78.8114 61.5823C85.6379 59.7354 92.6779 58.7959 99.7497 58.788C106.821 58.788 114.03 59.7669 120.686 61.5823C136.633 50.6863 143.704 52.9217 143.704 52.9217C148.281 64.5154 145.367 73.1777 144.535 75.2726C149.944 81.1389 153.133 88.6817 153.133 97.9011C153.133 130.31 133.583 137.433 114.863 139.529C117.914 142.183 120.547 147.211 120.547 155.174C120.547 166.488 120.41 175.569 120.41 178.361C120.41 180.597 121.936 183.252 126.095 182.414C159.373 171.237 183.361 139.668 183.361 102.372C183.498 55.7143 145.922 18 99.7497 18Z" fill="#EFEFEF"/>
</g>
<defs>
<clipPath id="clip0_3022_30003">
<rect width="168" height="164.571" fill="white" transform="translate(16 18)"/>
</clipPath>
</defs>
</svg>

<svg xmlns="http://www.w3.org/2000/svg" width="200" height="200" fill="none"><path fill="#0F0913" d="M.5.5h199v199H.5z"/><g clip-path="url(#a)"><path fill="#EFEFEF" fill-rule="evenodd" d="M99.75 18C53.438 18 16 55.714 16 102.372c0 37.296 23.988 68.866 57.266 80.04 4.16.84 5.684-1.815 5.684-4.049 0-1.956-.137-8.661-.137-15.646-23.297 5.029-28.148-10.058-28.148-10.058-3.744-9.778-9.292-12.292-9.292-12.292-7.625-5.168.556-5.168.556-5.168 8.458.559 12.896 8.66 12.896 8.66 7.486 12.851 19.55 9.22 24.403 6.984.693-5.448 2.913-9.219 5.27-11.314-18.581-1.956-38.131-9.219-38.131-41.628 0-9.22 3.326-16.762 8.595-22.628-.831-2.095-3.744-10.758.833-22.351 0 0 7.072-2.236 23.016 8.66a80.5 80.5 0 0 1 20.939-2.794c7.071 0 14.28.979 20.936 2.794 15.947-10.896 23.018-8.66 23.018-8.66 4.577 11.593 1.663 20.256.831 22.35 5.409 5.867 8.598 13.41 8.598 22.63 0 32.408-19.55 39.531-38.27 41.627 3.051 2.654 5.684 7.682 5.684 15.645 0 11.314-.137 20.395-.137 23.187 0 2.236 1.526 4.891 5.685 4.053 33.278-11.177 57.266-42.746 57.266-80.042C183.498 55.714 145.922 18 99.75 18" clip-rule="evenodd"/></g><defs><clipPath id="a"><path fill="#fff" d="M16 18h168v164.571H16z"/></clipPath></defs></svg>
